src/catppuccin-mocha-flamingo-cursors/not-allowed_24.svg

<?xml version="1.0" encoding="UTF-8" standalone="no"?>
<svg
   id="svg5327"
   width="24"
   height="24"
   version="1.1"
   sodipodi:docname="not-allowed_24.svg"
   inkscape:version="1.1.2 (0a00cf5339, 2022-02-04)"
   xmlns:inkscape="http://www.inkscape.org/namespaces/inkscape"
   xmlns:sodipodi="http://sodipodi.sourceforge.net/DTD/sodipodi-0.dtd"
   xmlns:xlink="http://www.w3.org/1999/xlink"
   xmlns="http://www.w3.org/2000/svg"
   xmlns:svg="http://www.w3.org/2000/svg">
  <sodipodi:namedview
     id="namedview22"
     pagecolor="#ffffff"
     bordercolor="#666666"
     borderopacity="1.0"
     inkscape:pageshadow="2"
     inkscape:pageopacity="0.0"
     inkscape:pagecheckerboard="0"
     showgrid="false"
     inkscape:snap-bbox="true"
     inkscape:snap-bbox-midpoints="true"
     inkscape:zoom="22.84"
     inkscape:cx="16.024518"
     inkscape:cy="15.980736"
     inkscape:window-width="1896"
     inkscape:window-height="1020"
     inkscape:window-x="9"
     inkscape:window-y="45"
     inkscape:window-maximized="1"
     inkscape:current-layer="svg5327" />
  <defs
     id="defs5329">
    <filter
       id="filter876"
       style="color-interpolation-filters:sRGB"
       width="1.12"
       height="1.12"
       x="-0.059999999"
       y="-0.059999999">
      <feGaussianBlur
         id="feGaussianBlur878"
         stdDeviation=".55" />
    </filter>
    <linearGradient
       id="linearGradient832"
       x1="21"
       x2="25"
       y1="16"
       y2="28"
       gradientTransform="matrix(1.1538461,0,0,1.1538461,-13.461537,-14.461537)"
       gradientUnits="userSpaceOnUse"
       xlink:href="#linearGradient830" />
    <linearGradient
       id="linearGradient830">
      <stop
         id="stop826"
         style="stop-color:#ffffff;stop-opacity:1"
         offset="0" />
      <stop
         id="stop828"
         style="stop-color:#ffffff;stop-opacity:0"
         offset="1" />
    </linearGradient>
    <filter
       id="filter858"
       style="color-interpolation-filters:sRGB"
       width="1.12"
       height="1.12"
       x="-0.059999999"
       y="-0.059999999">
      <feGaussianBlur
         id="feGaussianBlur860"
         stdDeviation=".35" />
    </filter>
    <filter
       id="filter831"
       style="color-interpolation-filters:sRGB"
       width="1.1439892"
       height="1.1439958"
       x="-0.071994588"
       y="-0.071997896">
      <feGaussianBlur
         id="feGaussianBlur833"
         stdDeviation=".66" />
    </filter>
    <filter
       id="filter843"
       style="color-interpolation-filters:sRGB"
       width="1.144"
       height="1.144"
       x="-0.072000007"
       y="-0.072000007">
      <feGaussianBlur
         id="feGaussianBlur845"
         stdDeviation=".42" />
    </filter>
    <filter
       inkscape:collect="always"
       style="color-interpolation-filters:sRGB"
       id="filter1642"
       x="-0.069140561"
       y="-0.069133593"
       width="1.1382811"
       height="1.1382672">
      <feGaussianBlur
         inkscape:collect="always"
         stdDeviation="0.31684638"
         id="feGaussianBlur1644" />
    </filter>
    <filter
       inkscape:collect="always"
       style="color-interpolation-filters:sRGB"
       id="filter1684"
       x="-0.02352"
       y="-0.023519998"
       width="1.04704"
       height="1.04704">
      <feGaussianBlur
         inkscape:collect="always"
         stdDeviation="0.16660001"
         id="feGaussianBlur1686" />
    </filter>
  </defs>
  <path
     id="path1646"
     style="color:#000000;font-style:normal;font-variant:normal;font-weight:normal;font-stretch:normal;font-size:medium;line-height:normal;font-family:sans-serif;font-variant-ligatures:normal;font-variant-position:normal;font-variant-caps:normal;font-variant-numeric:normal;font-variant-alternates:normal;font-feature-settings:normal;text-indent:0;text-align:start;text-decoration:none;text-decoration-line:none;text-decoration-style:solid;text-decoration-color:#000000;letter-spacing:normal;word-spacing:normal;text-transform:none;writing-mode:lr-tb;direction:ltr;text-orientation:mixed;dominant-baseline:auto;baseline-shift:baseline;text-anchor:start;white-space:normal;shape-padding:0;clip-rule:nonzero;display:inline;overflow:visible;visibility:visible;opacity:0.1;isolation:auto;mix-blend-mode:normal;color-interpolation:sRGB;color-interpolation-filters:linearRGB;solid-color:#000000;solid-opacity:1;vector-effect:none;fill:#000000;fill-opacity:1;fill-rule:nonzero;stroke:none;stroke-width:1.54537;stroke-linecap:round;stroke-linejoin:round;stroke-miterlimit:4;stroke-dasharray:none;stroke-dashoffset:0;stroke-opacity:1;color-rendering:auto;image-rendering:auto;shape-rendering:auto;text-rendering:auto;enable-background:accumulate;filter:url(#filter1684)"
     d="m 13,3.4999983 c -2.178202,0 -4.3564013,0.829722 -6.0138409,2.4871432 -3.3148788,3.3148419 -3.3148788,8.7118855 0,12.0267265 3.3148789,3.314843 8.7128029,3.314843 12.0276819,0 3.314879,-3.314841 3.314879,-8.7118845 0,-12.0267265 C 17.356401,4.3297203 15.178202,3.4999983 13,3.4999983 Z" />
  <path
     id="path823"
     style="color:#000000;font-style:normal;font-variant:normal;font-weight:normal;font-stretch:normal;font-size:medium;line-height:normal;font-family:sans-serif;font-variant-ligatures:normal;font-variant-position:normal;font-variant-caps:normal;font-variant-numeric:normal;font-variant-alternates:normal;font-feature-settings:normal;text-indent:0;text-align:start;text-decoration:none;text-decoration-line:none;text-decoration-style:solid;text-decoration-color:#000000;letter-spacing:normal;word-spacing:normal;text-transform:none;writing-mode:lr-tb;direction:ltr;text-orientation:mixed;dominant-baseline:auto;baseline-shift:baseline;text-anchor:start;white-space:normal;shape-padding:0;clip-rule:nonzero;display:inline;overflow:visible;visibility:visible;isolation:auto;mix-blend-mode:normal;color-interpolation:sRGB;color-interpolation-filters:linearRGB;solid-color:#000000;solid-opacity:1;vector-effect:none;fill:#1E1E2E;fill-opacity:1;fill-rule:nonzero;stroke:none;stroke-width:1.54537;stroke-linecap:round;stroke-linejoin:round;stroke-miterlimit:4;stroke-dasharray:none;stroke-dashoffset:0;stroke-opacity:1;color-rendering:auto;image-rendering:auto;shape-rendering:auto;text-rendering:auto;enable-background:accumulate"
     d="m 12.5,2.9999998 c -2.178202,0 -4.3564013,0.829722 -6.0138409,2.4871432 -3.3148788,3.3148418 -3.3148788,8.711884 0,12.026725 3.3148785,3.314843 8.7128029,3.314843 12.0276819,0 3.314879,-3.314841 3.314879,-8.7118832 0,-12.026725 C 16.856401,3.8297218 14.678202,2.9999998 12.5,2.9999998 Z" />
  <path
     id="path829"
     style="fill:#F2CDCD;fill-opacity:1;stroke:none;stroke-width:2.40225;stroke-linecap:round;stroke-linejoin:round;stroke-miterlimit:4;stroke-dasharray:none;stroke-opacity:1"
     d="m 12.39012,4.0007989 a 7.5011326,7.5008994 0 0 0 -5.1936549,2.1960641 7.5011326,7.5008994 0 0 0 0,10.606741 7.5011326,7.5008994 0 0 0 10.6070709,0 7.5011326,7.5008994 0 0 0 0,-10.606741 7.5011326,7.5008994 0 0 0 -5.413416,-2.1960641 z" />
  <path
     id="path824"
     style="opacity:0.2;fill:#F2CDCD;fill-opacity:1;stroke:none;stroke-width:2.72727;stroke-linecap:round;stroke-linejoin:round;stroke-miterlimit:4;stroke-dasharray:none;stroke-opacity:1"
     d="M 19.999999,11.5 A 7.4999993,7.4999993 0 0 1 12.5,18.999999 7.4999993,7.4999993 0 0 1 5.0000008,11.5 7.4999993,7.4999993 0 0 1 12.5,4.0000011 7.4999993,7.4999993 0 0 1 19.999999,11.5 Z" />
  <path
     id="path1586"
     style="opacity:0.2;fill:#000000;fill-opacity:1;stroke:none;stroke-width:1.83333;stroke-linecap:round;stroke-linejoin:round;stroke-miterlimit:4;stroke-dasharray:none;stroke-opacity:1;filter:url(#filter1642)"
     d="m 12.407591,6.3135026 a 5.5000005,5.5000005 0 0 0 -3.4960938,1.5976562 5.5000005,5.5000005 0 0 0 0,7.7773442 5.5000005,5.5000005 0 0 0 7.7773438,0 5.5000005,5.5000005 0 0 0 0,-7.7773442 5.5000005,5.5000005 0 0 0 -4.28125,-1.5976562 z m 0.507812,0.9882812 a 4.5019935,4.5019935 0 0 1 2.6875,0.9882813 L 9.2904035,14.602565 A 4.5019935,4.5019935 0 0 1 9.6165753,8.6162369 4.5019935,4.5019935 0 0 1 12.915403,7.3017838 Z m 3.398438,1.6914063 a 4.5019935,4.5019935 0 0 1 -0.330078,5.9902349 4.5019935,4.5019935 0 0 1 -5.9863283,0.326172 z" />
  <path
     id="path826"
     style="fill:#1E1E2E;fill-opacity:1;stroke:none;stroke-width:1.83333;stroke-linecap:round;stroke-linejoin:round;stroke-miterlimit:4;stroke-dasharray:none;stroke-opacity:1;opacity:1"
     d="M 12.107422 6.0136719 A 5.5000005 5.5000005 0 0 0 8.6113281 7.6113281 A 5.5000005 5.5000005 0 0 0 8.6113281 15.388672 A 5.5000005 5.5000005 0 0 0 16.388672 15.388672 A 5.5000005 5.5000005 0 0 0 16.388672 7.6113281 A 5.5000005 5.5000005 0 0 0 12.107422 6.0136719 z M 12.615234 7.0019531 A 4.5019935 4.5019935 0 0 1 15.302734 7.9902344 L 8.9902344 14.302734 A 4.5019935 4.5019935 0 0 1 9.3164062 8.3164062 A 4.5019935 4.5019935 0 0 1 12.615234 7.0019531 z M 16.013672 8.6933594 A 4.5019935 4.5019935 0 0 1 15.683594 14.683594 A 4.5019935 4.5019935 0 0 1 9.6972656 15.009766 L 16.013672 8.6933594 z " />
</svg>

<svg xmlns="http://www.w3.org/2000/svg" width="24" height="24">
    <defs>
        <filter id="c" width="1.138" height="1.138" x="-.069" y="-.069" style="color-interpolation-filters:sRGB">
            <feGaussianBlur stdDeviation=".317"/>
        </filter>
        <filter id="a" width="1.047" height="1.047" x="-.024" y="-.024" style="color-interpolation-filters:sRGB">
            <feGaussianBlur stdDeviation=".167"/>
        </filter>
    </defs>
    <path d="M13 3.5a8.48 8.48 0 0 0-6.014 2.487c-3.315 3.315-3.315 8.712 0 12.027s8.713 3.315 12.028 0 3.315-8.712 0-12.027A8.48 8.48 0 0 0 13 3.5" style="color:#000;font-style:normal;font-variant:normal;font-weight:400;font-stretch:normal;font-size:medium;line-height:normal;font-family:sans-serif;font-variant-ligatures:normal;font-variant-position:normal;font-variant-caps:normal;font-variant-numeric:normal;font-variant-alternates:normal;font-feature-settings:normal;text-indent:0;text-align:start;text-decoration:none;text-decoration-line:none;text-decoration-style:solid;text-decoration-color:#000;letter-spacing:normal;word-spacing:normal;text-transform:none;writing-mode:lr-tb;direction:ltr;text-orientation:mixed;dominant-baseline:auto;baseline-shift:baseline;text-anchor:start;white-space:normal;shape-padding:0;clip-rule:nonzero;display:inline;overflow:visible;visibility:visible;opacity:.1;isolation:auto;mix-blend-mode:normal;color-interpolation:sRGB;color-interpolation-filters:linearRGB;solid-color:#000;solid-opacity:1;vector-effect:none;fill:#000;fill-opacity:1;fill-rule:nonzero;stroke:none;stroke-width:1.54537;stroke-linecap:round;stroke-linejoin:round;stroke-miterlimit:4;stroke-dasharray:none;stroke-dashoffset:0;stroke-opacity:1;color-rendering:auto;image-rendering:auto;shape-rendering:auto;text-rendering:auto;enable-background:accumulate;filter:url(#a)"/>
    <path d="M12.5 3a8.48 8.48 0 0 0-6.014 2.487c-3.315 3.315-3.315 8.712 0 12.027s8.713 3.315 12.028 0 3.315-8.712 0-12.027A8.48 8.48 0 0 0 12.5 3" style="color:#000;font-style:normal;font-variant:normal;font-weight:400;font-stretch:normal;font-size:medium;line-height:normal;font-family:sans-serif;font-variant-ligatures:normal;font-variant-position:normal;font-variant-caps:normal;font-variant-numeric:normal;font-variant-alternates:normal;font-feature-settings:normal;text-indent:0;text-align:start;text-decoration:none;text-decoration-line:none;text-decoration-style:solid;text-decoration-color:#000;letter-spacing:normal;word-spacing:normal;text-transform:none;writing-mode:lr-tb;direction:ltr;text-orientation:mixed;dominant-baseline:auto;baseline-shift:baseline;text-anchor:start;white-space:normal;shape-padding:0;clip-rule:nonzero;display:inline;overflow:visible;visibility:visible;isolation:auto;mix-blend-mode:normal;color-interpolation:sRGB;color-interpolation-filters:linearRGB;solid-color:#000;solid-opacity:1;vector-effect:none;fill:#1e1e2e;fill-opacity:1;fill-rule:nonzero;stroke:none;stroke-width:1.54537;stroke-linecap:round;stroke-linejoin:round;stroke-miterlimit:4;stroke-dasharray:none;stroke-dashoffset:0;stroke-opacity:1;color-rendering:auto;image-rendering:auto;shape-rendering:auto;text-rendering:auto;enable-background:accumulate"/>
    <path d="M12.39 4a7.501 7.5 0 0 0-5.194 2.197 7.501 7.5 0 0 0 0 10.607 7.501 7.5 0 0 0 10.608 0 7.501 7.5 0 0 0 0-10.607A7.501 7.5 0 0 0 12.39 4" style="fill:#f2cdcd;fill-opacity:1;stroke:none;stroke-width:2.40225;stroke-linecap:round;stroke-linejoin:round;stroke-miterlimit:4;stroke-dasharray:none;stroke-opacity:1"/>
    <path d="M20 11.5a7.5 7.5 0 0 1-7.5 7.5A7.5 7.5 0 0 1 5 11.5 7.5 7.5 0 0 1 12.5 4a7.5 7.5 0 0 1 7.5 7.5" style="opacity:.2;fill:#f2cdcd;fill-opacity:1;stroke:none;stroke-width:2.72727;stroke-linecap:round;stroke-linejoin:round;stroke-miterlimit:4;stroke-dasharray:none;stroke-opacity:1"/>
    <path d="M12.408 6.314A5.5 5.5 0 0 0 8.91 7.91a5.5 5.5 0 0 0 0 7.778 5.5 5.5 0 0 0 7.778 0 5.5 5.5 0 0 0 0-7.778 5.5 5.5 0 0 0-4.281-1.597m.507.988a4.5 4.5 0 0 1 2.688.988L9.29 14.603a4.5 4.5 0 0 1 .327-5.987 4.5 4.5 0 0 1 3.298-1.314m3.399 1.691a4.5 4.5 0 0 1-.33 5.99 4.5 4.5 0 0 1-5.987.327z" style="opacity:.2;fill:#000;fill-opacity:1;stroke:none;stroke-width:1.83333;stroke-linecap:round;stroke-linejoin:round;stroke-miterlimit:4;stroke-dasharray:none;stroke-opacity:1;filter:url(#c)"/>
    <path d="M12.107 6.014A5.5 5.5 0 0 0 8.611 7.61a5.5 5.5 0 0 0 0 7.778 5.5 5.5 0 0 0 7.778 0 5.5 5.5 0 0 0 0-7.778 5.5 5.5 0 0 0-4.282-1.597m.508.988a4.5 4.5 0 0 1 2.688.988L8.99 14.303a4.5 4.5 0 0 1 .326-5.987 4.5 4.5 0 0 1 3.3-1.314m3.399 1.691a4.5 4.5 0 0 1-.33 5.99 4.5 4.5 0 0 1-5.987.327z" style="fill:#1e1e2e;fill-opacity:1;stroke:none;stroke-width:1.83333;stroke-linecap:round;stroke-linejoin:round;stroke-miterlimit:4;stroke-dasharray:none;stroke-opacity:1;opacity:1"/>
</svg>
